client/src/landingPage/assets/icons/calendarIcon.svg

<svg width="12" height="15" viewBox="0 0 12 15" fill="none" xmlns="http://www.w3.org/2000/svg">
<path fill-rule="evenodd" clip-rule="evenodd" d="M0.0292969 5.03795C0.255454 3.22428 1.74012 1.82366 3.53793 1.82366H8.46101C10.2588 1.82366 11.7435 3.22428 11.9696 5.03795H0.0292969ZM8.7687 0.859375C8.5138 0.859375 8.30716 1.07524 8.30716 1.34152V3.27009C8.30716 3.53637 8.5138 3.75223 8.7687 3.75223C9.0236 3.75223 9.23024 3.53637 9.23024 3.27009V1.34152C9.23024 1.07524 9.0236 0.859375 8.7687 0.859375ZM3.23024 0.859375C2.97534 0.859375 2.7687 1.07524 2.7687 1.34152V3.27009C2.7687 3.53637 2.97534 3.75223 3.23024 3.75223C3.48514 3.75223 3.69178 3.53637 3.69178 3.27009V1.34152C3.69178 1.07524 3.48514 0.859375 3.23024 0.859375Z" fill="#2B3F6C"/>
<path opacity="0.3" fill-rule="evenodd" clip-rule="evenodd" d="M0 6.00244V10.6632C0 12.7046 1.58422 14.3596 3.53846 14.3596H8.46154C10.4158 14.3596 12 12.7046 12 10.6632V6.00244H0ZM2.61584 8.57391C2.36093 8.57391 2.1543 8.35804 2.1543 8.09176C2.1543 7.82548 2.36093 7.60962 2.61584 7.60962H3.23122C3.48612 7.60962 3.69276 7.82548 3.69276 8.09176C3.69276 8.35804 3.48612 8.57391 3.23122 8.57391H2.61584ZM5.23122 8.09176C5.23122 8.35804 5.43786 8.57391 5.69276 8.57391H6.30814C6.56304 8.57391 6.76968 8.35804 6.76968 8.09176C6.76968 7.82548 6.56304 7.60962 6.30814 7.60962H5.69276C5.43786 7.60962 5.23122 7.82548 5.23122 8.09176ZM8.30814 8.09176C8.30814 8.35804 8.51478 8.57391 8.76968 8.57391H9.38507C9.63997 8.57391 9.8466 8.35804 9.8466 8.09176C9.8466 7.82548 9.63997 7.60962 9.38507 7.60962H8.76968C8.51478 7.60962 8.30814 7.82548 8.30814 8.09176ZM2.1543 10.6632C2.1543 10.9295 2.36093 11.1453 2.61584 11.1453H3.23122C3.48612 11.1453 3.69276 10.9295 3.69276 10.6632C3.69276 10.3969 3.48612 10.181 3.23122 10.181H2.61584C2.36093 10.181 2.1543 10.3969 2.1543 10.6632ZM5.23122 10.6632C5.23122 10.9295 5.43786 11.1453 5.69276 11.1453H6.30814C6.56304 11.1453 6.76968 10.9295 6.76968 10.6632C6.76968 10.3969 6.56304 10.181 6.30814 10.181H5.69276C5.43786 10.181 5.23122 10.3969 5.23122 10.6632ZM8.30814 10.6632C8.30814 10.9295 8.51478 11.1453 8.76968 11.1453H9.38507C9.63997 11.1453 9.8466 10.9295 9.8466 10.6632C9.8466 10.3969 9.63997 10.181 9.38507 10.181H8.76968C8.51478 10.181 8.30814 10.3969 8.30814 10.6632Z" fill="#2B3F6C"/>
</svg>

<svg width="12" height="15" fill="none" xmlns="http://www.w3.org/2000/svg">
    <path fill-rule="evenodd" clip-rule="evenodd" d="M.03 5.038c.225-1.814 1.71-3.214 3.508-3.214H8.46c1.798 0 3.282 1.4 3.509 3.214H.03ZM8.768.859a.472.472 0 0 0-.462.483V3.27c0 .266.207.482.462.482a.472.472 0 0 0 .461-.482V1.342A.472.472 0 0 0 8.77.859ZM3.23.86a.472.472 0 0 0-.461.483V3.27c0 .266.206.482.461.482a.472.472 0 0 0 .462-.482V1.342A.472.472 0 0 0 3.23.859Z" fill="#2B3F6C"/>
    <path opacity=".3" fill-rule="evenodd" clip-rule="evenodd" d="M0 6.002v4.661c0 2.042 1.584 3.697 3.538 3.697h4.924c1.954 0 3.538-1.655 3.538-3.697v-4.66H0Zm2.616 2.572a.472.472 0 0 1-.462-.482c0-.267.207-.482.462-.482h.615c.255 0 .462.215.462.482a.472.472 0 0 1-.462.482h-.615Zm2.615-.482c0 .266.207.482.462.482h.615a.472.472 0 0 0 .462-.482.472.472 0 0 0-.462-.482h-.615a.472.472 0 0 0-.462.482Zm3.077 0c0 .266.207.482.462.482h.615a.472.472 0 0 0 .462-.482.472.472 0 0 0-.462-.482H8.77a.472.472 0 0 0-.462.482Zm-6.154 2.571c0 .267.207.482.462.482h.615a.472.472 0 0 0 .462-.482.472.472 0 0 0-.462-.482h-.615a.472.472 0 0 0-.462.482Zm3.077 0c0 .267.207.482.462.482h.615a.472.472 0 0 0 .462-.482.472.472 0 0 0-.462-.482h-.615a.472.472 0 0 0-.462.482Zm3.077 0c0 .267.207.482.462.482h.615a.472.472 0 0 0 .462-.482.472.472 0 0 0-.462-.482H8.77a.472.472 0 0 0-.462.482Z" fill="#2B3F6C"/>
</svg>
